X:1
T: The Marquis of Hartington's Strathspey
C:
R:Strathspey
Q: 128
K:G
M:4/4
L:1/16
|:G4|e6 d2 B4 A4|G2B2 E8 G4|D2E2 G2B2 d4 B4|A12 d2c2|
B2G2 E2G2 D2E2 D2C2|B,2D2 G2B2 d4 b2a2|g4 e4 D4 D2EF|G12:|
|:G4|B,4 D2E2 G4 A4|D2E2 G2B2 c4 B4|d6 B2 d4 g4|f6 e2 d2c2 B2A2|
G4 f2g2 F4 ^d2e2|d4 B4 A4 G4|E4 ^d2e2 D4 D2EF|G12:|
